X:1
T:Title
%%score { ( 1 3 ) | ( 2 4 ) }
L:1/8
M:6/8
K:Bb
V:1 treble nm="Grand Piano"
V:3 treble 
V:2 bass 
V:4 bass 
V:1
 z3 z2[Q:1/4=56] [DF] | [DF][B,D][CE] [DF][DF][_DG] | [DF]3- [DF]2 [B,DF] | %3
 [B,EG][B,EG][B,EG] [=Ec][EB][EG] |[M:5/8] F-F- F3 |[M:1/8] [DF] | %6
[M:3/4] [DF][B,D] [CE][DF] [DF][_DG] | [DF]6 | [B,EG][EB] [Ge][Fd] [DFB][EFc] | %9
[M:5/8] [DFB]-[DFB]- [DFB]3 |[M:1/8] [DFB] |[M:3/4] [CFA][DFB] [EFc][EFc] [DFB][CFA] | %12
 B2- [GB-] [FB]2 [DFB] | [Fd][=E_d] [F=d][FB] [FA][DB] |[M:5/8] c-c- c3 |[M:1/8] F | %16
[M:3/4] [DF][B,D] [CE][DF] [DF][_DG] | [DF]6 | [B,EG][EB] [Ge][Fd] [DFB][EFc] | %19
[M:5/8] [DFB]-[DFB]- [DFB]3 |] %20
V:2
 z3 z2 [B,,B,] | [B,,B,][B,,F,][B,,F,] [B,,B,][B,,F,][B,,=E,] | z3 B,2 B,, | %3
 E,E,E, [C,B,][C,G,][C,B,] |[M:5/8] [F,A,]-[F,A,]- [F,A,]3 |[M:1/8] [B,,B,] | %6
[M:3/4] [B,,B,][B,,F,] [B,,F,][B,,B,] [B,,F,][B,,=E,] | z2 z B,2 B,, | E,[E,G,] [E,B,][F,B,] F,F, | %9
[M:5/8] B,,-B,,- B,,3 |[M:1/8] B,, |[M:3/4] F,F, F,F, F,F, | z2 E D2 B,, | %13
 [B,,B,][B,,B,] [B,,B,][D,B,] [C,F,][B,,B,] |[M:5/8] [F,A,F]2 [G,B,] [A,C]2 |[M:1/8] [F,A,E] | %16
[M:3/4] [B,,B,][B,,F,] [B,,F,][B,,B,] [B,,F,][B,,=E,] | z2 z B,2 B,, | E,[E,G,] [E,B,][F,B,] F,F, | %19
[M:5/8] B,,-B,,- B,,3 |] %20
V:3
 x6 | x6 | F,3 z3 | x6 |[M:5/8] z z2 E2 |[M:1/8] x |[M:3/4] x6 | F,4 z [B,DF] | x6 |[M:5/8] x5 | %10
[M:1/8] x |[M:3/4] x6 | [DF]2 z2 z2 | x6 |[M:5/8] z2 =E F2 |[M:1/8] x |[M:3/4] x6 | F,4 z [B,DF] | %18
 x6 |[M:5/8] x5 |] %20
V:4
 x6 | x6 | B,,6 | x6 |[M:5/8] x5 |[M:1/8] x |[M:3/4] x6 | B,,6 | x6 |[M:5/8] x5 |[M:1/8] x | %11
[M:3/4] x6 | B,,6 | x6 |[M:5/8] x5 |[M:1/8] x |[M:3/4] x6 | B,,6 | x6 |[M:5/8] x5 |] %20

